home-edit.svg

<svg fill="currentColor" viewBox="0 0 24 24"><path d="M12 3 2 12h3v8h5v-6h4v1.11l5.43-5.43zm9.04 8.14a.6.6 0 0 0-.39.16l-1 1 2.05 2.05 1-1a.55.55 0 0 0 0-.77l-1.28-1.28c-.1-.1-.24-.16-.38-.16m-1.98 1.74L13 18.94V21h2.06l6.05-6.07z"/></svg>

<svg  viewBox="0 0 24 24" fill="currentColor"><path  d="M12 3L2 12H5V20H10V14H14V15.11L19.43 9.68L12 3M21.04 11.14C20.9 11.14 20.76 11.2 20.65 11.3L19.65 12.3L21.7 14.35L22.7 13.35C22.91 13.14 22.91 12.79 22.7 12.58L21.42 11.3C21.32 11.2 21.18 11.14 21.04 11.14M19.06 12.88L13 18.94V21H15.06L21.11 14.93L19.06 12.88Z"/></svg>
